icons/purgatory/icon_card-androidpay_xl_black.svg

<?xml version="1.0" encoding="UTF-8"?>
<svg width="36px" height="36px" viewBox="0 0 36 36" version="1.1" xmlns="http://www.w3.org/2000/svg" xmlns:xlink="http://www.w3.org/1999/xlink">
    <!-- Generator: Sketch 47.1 (45422) - http://www.bohemiancoding.com/sketch -->
    <title>icon_card-androidpay_xl_black</title>
    <desc>Created with Sketch.</desc>
    <defs></defs>
    <g id="October-2017" stroke="none" stroke-width="1" fill="none" fill-rule="evenodd" opacity="0.300000012">
        <g id="icon_card-androidpay_xl_black">
            <g>
                <rect id="_ph_" x="0" y="0" width="36" height="36"></rect>
                <path d="M3.92481825,15.3586377 L3.88509114,15.3586377 L3.88509114,20.5899074 C3.88509114,21.0263494 4.2447804,21.3834777 4.68448006,21.3834777 L5.37370571,21.3834777 L5.37370571,23.2067452 C5.37386462,23.6448436 5.7316867,24 6.17305491,24 C6.61442311,24 6.9722452,23.6448436 6.97236438,23.2067452 L6.97236438,21.3834777 L8.04936635,21.3834777 L8.04936635,23.2067452 C8.04960472,23.6448436 8.40738708,24 8.84875528,24 C9.29016321,24 9.64790584,23.6448436 9.64810448,23.2067452 L9.64810448,21.3834777 L10.3198502,21.3834777 C10.7594704,21.3834777 11.1191597,21.0263494 11.1191597,20.5899074 L11.1191597,15.3586377 L3.92481825,15.3586377 Z M5.51712058,13.4739229 C5.51712058,13.6601976 5.66919596,13.811213 5.85678738,13.811213 C6.04441852,13.811213 6.19657336,13.6601976 6.19657336,13.4739229 C6.19657336,13.2876482 6.04441852,13.1366723 5.85678738,13.1366723 C5.66919596,13.1366723 5.51712058,13.2876482 5.51712058,13.4739229 Z M8.8077569,13.4739229 C8.8077569,13.6601976 8.95991173,13.811213 9.14750315,13.811213 C9.33505484,13.811213 9.48720968,13.6601976 9.48720968,13.4739229 C9.48720968,13.2876482 9.33505484,13.1366723 9.14750315,13.1366723 C8.95991173,13.1366723 8.8077569,13.2876482 8.8077569,13.4739229 Z M3.89410919,15.0809019 C3.89271874,15.0447749 3.89180502,15.0085296 3.89180502,14.9720872 C3.89180502,14.7288218 3.92267298,14.4919458 3.9808732,14.2642592 C4.20525192,13.3867213 4.83786644,12.6461582 5.6929925,12.2064426 L5.13824312,11.1904707 C5.10399835,11.1278401 5.12743735,11.0495519 5.190524,11.0156336 C5.25357093,10.9816364 5.33242924,11.0049453 5.36659456,11.0675365 L5.92789891,12.0955376 C6.40545851,11.8900163 6.94193341,11.7746545 7.50875983,11.7746545 C8.07149435,11.7746545 8.60399655,11.8883992 9.0788547,12.0910415 L9.63765624,11.0675365 C9.67190101,11.0049453 9.75067988,10.9816364 9.81380625,11.0156336 C9.87685318,11.0495519 9.90025245,11.1278401 9.86608713,11.1904707 L9.31419811,12.2010788 C10.2113157,12.6588184 10.8652637,13.4471038 11.0631842,14.3776883 C11.0855903,14.4828746 11.102077,14.5898356 11.1125252,14.6983742 L11.1125252,15.0809019 L3.89410919,15.0809019 Z M13,16.0133401 C12.9998411,15.5752022 12.642019,15.2200853 12.2006508,15.2200853 C11.7592826,15.2200853 11.4014605,15.5752022 11.4013413,16.0133401 L11.4013413,19.3466038 C11.4014605,19.7847417 11.7592826,20.1398981 12.2006508,20.1398981 C12.642019,20.1398981 12.9998411,19.7847417 13,19.3466038 L13,16.0133401 Z M3.59873812,16.0133401 L3.59873812,19.3466038 C3.59849976,19.7847417 3.24067767,20.1398981 2.79930947,20.1398981 C2.35794127,20.1398981 2.00019864,19.7847417 2,19.3466038 L2,16.0133401 C2.00019864,15.5752022 2.35794127,15.2200853 2.79930947,15.2200853 C3.24067767,15.2200853 3.59849976,15.5752022 3.59873812,16.0133401 L3.59873812,16.0133401 Z" id="Fill-4" fill="#0B1F35"></path>
                <path d="M34,15.1144634 L32.9896054,15.1144634 L31.0205251,19.8698274 L29.0556859,15.1204878 L28.0153968,15.1204878 L30.4965222,20.9216634 L30.2992574,21.3734927 C30.0780383,21.873478 29.6595156,22.0903561 29.2589683,22.0903561 L28.9301291,22.0903561 L28.9301291,23 L29.2470106,23 C30.1378272,23 30.8432982,22.5180487 31.2199298,21.6023804 L34,15.1144634 Z M27.477335,21.1445658 L27.477335,15.1204878 L26.5805394,15.1204878 L26.5805394,15.8072293 C26.0783509,15.3011804 25.3848378,15 24.5956623,15 C22.8857757,15 21.5406017,16.3975805 21.5406017,18.1265024 C21.5406017,19.8614488 22.8857757,21.2650536 24.5956623,21.2650536 C25.3848378,21.2650536 26.0783509,20.9578097 26.5805394,20.4578244 L26.5805394,21.1445658 L27.477335,21.1445658 Z M24.6614302,20.3855317 C23.4357953,20.3855317 22.4433762,19.3734731 22.4433762,18.1265024 C22.4433762,16.885517 23.4357953,15.8734976 24.6614302,15.8734976 C25.4266901,15.8734976 26.1500977,16.2349219 26.5207504,16.8553951 C26.5386871,16.8915414 26.5805394,16.9517853 26.5805394,17.0542 L26.5805394,19.1927414 C26.5745605,19.3011804 26.5386871,19.3674487 26.5147715,19.3975707 C26.1142243,19.9999707 25.4266901,20.3855317 24.6614302,20.3855317 Z M15.8967956,22.9518049 L15.8967956,20.4578244 C16.398984,20.9638341 17.092536,21.271078 17.8816726,21.271078 C19.5855804,21.271078 20.936772,19.8674732 20.936772,18.1385512 C20.936772,16.4036049 19.5855804,15 17.8816726,15 C17.092536,15 16.398984,15.3072048 15.8967956,15.8072293 L15.8967956,15.1204878 L15,15.1204878 L15,22.9518049 L15.8967956,22.9518049 Z M17.8159436,20.3915561 C17.0506837,20.3915561 16.3391951,20.0240682 15.9565846,19.4096195 C15.932669,19.3734731 15.8967956,19.3132292 15.8967956,19.2108146 L15.8967956,17.0481756 C15.9027745,16.9457609 15.9386479,16.8794926 15.9625634,16.8493707 C16.3631107,16.2469707 17.0506837,15.879522 17.8159436,15.879522 C19.0355607,15.879522 20.0280187,16.8915414 20.0280187,18.1385512 C20.0280187,19.3794975 19.0355607,20.3915561 17.8159436,20.3915561 L17.8159436,20.3915561 Z" id="Fill-5" fill="#0B1F35"></path>
            </g>
        </g>
    </g>
</svg>

<svg width="36" height="36" viewBox="0 0 36 36" xmlns="http://www.w3.org/2000/svg">
  <g fill="none" fill-rule="evenodd" opacity=".3">
    <path d="M0 0h36v36H0z"/>
    <path d="M3.925 15.36h-.04v5.23c0 .436.36.793.8.793h.69v1.824c0 .438.357.793.798.793.44 0 .8-.355.8-.793v-1.824h1.076v1.824c0 .438.357.793.8.793.44 0 .798-.355.798-.793v-1.824h.672c.44 0 .8-.357.8-.793v-5.23H3.924zm1.592-1.886c0 .186.152.337.34.337.187 0 .34-.15.34-.336 0-.186-.153-.337-.34-.337-.188 0-.34.15-.34.337zm3.29 0c0 .186.153.337.34.337.188 0 .34-.15.34-.336 0-.186-.152-.337-.34-.337-.187 0-.34.15-.34.337zM3.895 15.08l-.002-.108c0-.243.03-.48.09-.708.223-.877.856-1.618 1.71-2.058L5.14 11.19c-.034-.062-.01-.14.053-.174.064-.034.142-.01.177.052l.56 1.028c.478-.206 1.015-.32 1.582-.32.56 0 1.094.112 1.57.315l.558-1.022c.034-.063.113-.086.176-.052.063.034.086.112.052.174l-.552 1.01c.897.46 1.55 1.247 1.75 2.178.022.105.038.212.05.32v.383h-7.22zm9.106.933c0-.438-.358-.793-.8-.793-.44 0-.8.355-.8.793v3.334c0 .438.36.793.8.793.442 0 .8-.355.8-.793v-3.334zm-9.4 0v3.334c-.002.438-.36.793-.8.793-.442 0-.8-.355-.8-.793v-3.334c0-.438.358-.793.8-.793.44 0 .798.355.8.793zM34 15.114h-1.01l-1.97 4.756-1.964-4.75h-1.04l2.48 5.802-.197.45c-.222.5-.64.718-1.04.718h-.33V23h.317c.89 0 1.596-.482 1.973-1.398L34 15.114zm-6.523 6.03V15.12h-.896v.687C26.08 15.3 25.386 15 24.597 15c-1.71 0-3.055 1.398-3.055 3.127 0 1.734 1.346 3.138 3.056 3.138.79 0 1.482-.307 1.985-.807v.687h.897zm-2.816-.758c-1.224 0-2.217-1.013-2.217-2.26 0-1.24.993-2.253 2.218-2.253.767 0 1.49.362 1.86.982.02.037.06.097.06.2v2.138c-.005.108-.04.174-.065.205-.4.602-1.088.988-1.854.988zm-8.763 2.566v-2.494c.502.506 1.196.813 1.985.813 1.704 0 3.055-1.403 3.055-3.13 0-1.736-1.35-3.14-3.055-3.14-.79 0-1.483.307-1.985.807v-.687H15v7.832h.897zm1.92-2.56c-.766 0-1.478-.368-1.86-.982-.024-.037-.06-.097-.06-.2V17.05c.006-.102.042-.17.066-.2.4-.6 1.088-.968 1.853-.968 1.22 0 2.212 1.012 2.212 2.26 0 1.24-.992 2.252-2.212 2.252z" fill="#0B1F35"/>
  </g>
</svg>
